!!!COM: Bach, Johann Sebastian
!!!OPR: Das wohltemperirte Clavier, Band II
!!!XEN: Well-Tempered Clavier, Volume II
!!!OTL: Prelude in G-sharp Minor
!!!OMV: Prelude XVIII
!!!SCT: BWV 887
!!!SCA: Thematisch-systematisches Verzeichnis der musikalischen Werke Johann Sebastian Bach: Bach-Werke-Verzeichnis (Schmieder)
!!!YOR: Bach Gesellschaft Edition xiv
!!!EED: Walter Hewlett
!!!ENC: Walter Hewlett
!!!CDT: 1685/3//-1750/7/28/
!!!OCY: Deutschland
!!!YEC: Copyright (c) 1994, 2000 Center for Computer Assisted Research in the Humanities
!!!YEM: Rights to all derivative editions reserved
!!!YEM: Refer to licensing agreement for further details
!!!YEN: United States of America
**kern
*I:
*>[A,B,B]
*>A
*clefG6
*k[f#c#g#d#a#]
*g#:
*M4/4
=1-
*^
16g#/LL	4d#\ 4B\ 4G#\
16a#/	.
16b/	.
16cc#/JJ	.
16dd#/LL	4r
16b/	.
16a#/	.
16g#/JJ	.
16f##/LL	4c#\ 4A#\ 4G#\
16g#/	.
16a#/	.
16e/JJ	.
16d#/	16r
16r	16c#\LL
8r	16B\
.	16A#\JJ
=2	=2
8r	16G#\LL
.	16d#\
8b/ 8g#/	16G#\
.	16d#\JJ
! (8bP (8g#P/	!
4cc#p/ 4a#p/)	16F##\LL
.	16d#\
.	16F##\
.	16d#\JJ
8r	16G#\LL
.	16d#\
8b/ 8g#/	16G#\
.	16d#\JJ
! (8bP (8g#P/	!
4a#p/ 4f##p/)	16D#\LL
.	16d#\
.	16D#\
.	16d#\JJ
=3	=3
16g#/LL	4d#\ 4B\ 4G#\
16a#/	.
16b/	.
16cc#/JJ	.
16dd#/LL	4r
16b/	.
16a#/	.
16g#/JJ	.
16f##/LL	4c#\ 4A#\ 4G#\
16g#/	.
16a#/	.
16e/JJ	.
16d#/	16r
16r	16c#\LL
8r	16B\
.	16A#\JJ
=4	=4
8r	16G#\LL
.	16d#\
8gg#\ 8b\	16G#\
.	16d#\JJ
! (8gg#P (8bP/	!
4aa#p\ 4cc#p\)	16F##\LL
.	16d#\
.	16F##\
.	16d#\JJ
8r	16G#\LL
.	16d#\
8gg#\ 8b\	16G#\
.	16d#\JJ
! (8gg#P (8bP/	!
4ff##p\ 4a#p\)	16D#\LL
.	16d#\
.	16D#\
.	16d#\JJ
=5	=5
*^	*
8r	2..ryy	16G#\LL
.	.	16d#\
16b/ 16g#/LL	.	16G#\
16a#/ 16f##/JJ	.	16d#\JJ
8b/ 8g#/L	.	16F#\LL
.	.	16d#\
8gg#/ 8b/J	.	16F#\
.	.	16d#\JJ
8r	.	16E#\LL
.	.	16c#\
8b/ 8g#/	.	16E#\
.	.	16c#\JJ
8r	.	16C#\LL
.	.	16c#\
!	! Printed with pass one	!
!	! G#4    2      2 s     u1 [[	!
!	! F##4   2      2 s x   u1 ]]	!
!	! G#4    4      2 e     u1 [	!
!	! B4     4      2 e     u1 ]	!
!	! irest  4      2 e      1	!
!	! G#4    4      2 e     u1	!
!	! irest  4      2 e      1	!
16a#/LL	8e#\	16C#\
16g#/JJ	.	16c#\JJ
=6	=6	=6
8r	2..ryy	16F#\LL
.	.	16c#\
16a#/ 16f#/LL	.	16F#\
16g#/ 16e#/JJ	.	16c#\JJ
8a#/ 8f#/L	.	16E#\LL
.	.	16c#\
8ff#/ 8a#/J	.	16E#\
.	.	16c#\JJ
8r	.	16D#\LL
.	.	16B\
8a#/ 8f#/	.	16D#\
.	.	16B\JJ
8r	.	16BB\LL
.	.	16B\
!	! Printed with pass one	!
!	! F#4    2      2 s     u1 [[	!
!	! E#4    2      2 s #   u1 ]]	!
!	! F#4    4      2 e     u1 [	!
!	! A#4    4      2 e     u1 ]	!
!	! irest  4      2 e      1	!
!	! F#4    4      2 e     u1	!
!	! irest  4      2 e      1	!
16g#/LL	8d#\	16BB\
16f#/JJ	.	16B\JJ
=7	=7	=7
8r	2..ryy	16E#\LL
.	.	16B\
16g#/ 16c##/LL	.	16E#\
16f#/ 16d#/JJ	.	16B\JJ
8g#/ 8e#/L	.	16D#\LL
.	.	16B\
8ee#/ 8g#/J	.	16D#\
.	.	16B\JJ
8r	.	16C##\LL
.	.	16A#\
8g#/ 8e#/	.	16C##\
.	.	16A#\JJ
8r	.	16AA#\LL
.	.	16A#\
!	! Printed with pass one	!
!	! C##4   2      2 s x   u1 [[	!
!	! D#4    2      2 s     u1 ]]	!
!	! E#4    4      2 e #   u1 [	!
!	! G#4    4      2 e     u1 ]	!
!	! irest  4      2 e      1	!
!	! E#4    4      2 e #   u1        +	!
!	! irest  4      2 e      1	!
16f#/LL	8c##\	16AA#\
16e#/JJ	.	16A#\JJ
=8	=8	=8
*v	*v	*
4f#/ 4d#/	16D#\LL
.	16F#\
.	16G#\
.	16A#\JJ
16r	8B\L
16a#/LL	.
16g#/	8D#\J
16f#/JJ	.
16e#/LL	8C##\L
16d#/	.
16e#/	8B\
16g#/JJ	.
16f##/LL	8A#\
16e#/	.
16f##/	8C#\J
16a#/JJ	.
=9	=9
(8a#/L	16BB#\LL
.	16D#\
8g#/J)	16E#\
.	16F##\JJ
16r	8G#\L
16f#/LL	.
16en/	8BBn\J
16d#/JJ	.
16c#/LL	8AA#/L
16B#/	.
16c#/	8F##/
16e/JJ	.
16d#/LL	8F#/
16c#/	.
16d#/	8AAn/J
16f#/JJ	.
=10	=10
(8f#/L	16GG#/LL
.	16BB#/
8e/J)	16C#/
.	16D#/JJ
16r	8E\L
16d#/LL	.
16c#/	8GG#\J
16Bn/JJ	.
16A#/LL	8FF##\L
16G#/	.
16A#/	8E\
16c#/JJ	.
16B#/LL	8D#\
16A#/	.
16B#/	8FF#\J
16d#/JJ	.
=11	=11
16G#/LL	8EE#\L
16F##/	.
16G#/	8Dn\
16Bn/JJ	.
16A#/LL	8C#\
16G#/	.
16A#/	8EEn\J
16c#/JJ	.
16F##/LL	8DD#\L
16e/	.
16d#/	8EE#\
16c#/JJ	.
16a#/LL	8FF##\
16c#/	.
16a#/	8DD#\J
16c#/JJ	.
=12	=12
16B#/LL	8GG#/L
16an/	.
16g#/	8AA#/
16f#/JJ	.
16dd#/LL	8BB#/
16f#/	.
16dd#/	8GG#/J
16f#/JJ	.
16e#/LL	8C#\L
16dn/	.
16c#/	8D#\
16Bn/JJ	.
16g#/LL	8E#\
16B/	.
16g#/	8C#\J
16B/JJ	.
=13	=13
16A#/LL	8F#\L
16gn/	.
16f#/	8G#\
16e/JJ	.
16cc#/LL	8A#\
16e/	.
16cc#/	8F#\J
16e/JJ	.
16d#/LL	8B\L
16f#/	.
16g#/	8A#\
16a#/JJ	.
16b/LL	8G#\
16f#/	.
16e#/	8F#\J
16d#/JJ	.
=14	=14
16c##/LL	8E#/L
16b/	.
16a#/	8G#/
16g#/JJ	.
16ee#\LL	8C##/
16g#\	.
16ee#\	8AA#/J
16g#\JJ	.
16f#\LL	8D#/L
16a#\	.
16dd#\	8C#/
16ee#\JJ	.
16ff#\LL	8BB#/
16dd#\	.
16b#\	8AA#/J
16dd#\JJ	.
=15	=15
16g##\LL	8BB#/L
16ff#\	.
16ee#\	8D#/
16dd#\JJ	.
16bb#\LL	8GG##/
16dd#\	.
16bb#\	8EE#/J
16dd#\JJ	.
16cc##\LL	8AA#/
16dd#\	.
16ee#\	8r
16aa#\JJ	.
*	*clefG6
16a#/	16r
16r	16g#/LL
8r	16f#/
.	16e#/JJ
=16	=16
16r	16d#/LL
16cc##\LL	16e#/
16dd#\	16f#/
16ee#\JJ	16g#/JJ
32ff#\LLL	16a#/LL
32ee#\J	.
16dd#\J	16f#/
8bb\ 8gg#\J	16e#/
.	16d#/JJ
8bb\ 8gg#\L	16c##/LL
.	16d#/
8aa#\ 8cc##\J	16e#/
.	16B/JJ
*	*clefG6
4r	16A#\LL
.	16G#\
.	16F#\
.	16E#\JJ
=17	=17
8r	16D#\LL
.	16A#\
8ff#\ 8dd#\	16D#\
.	16A#\JJ
! (8ff#P (8dd#P/	!
4gg#p\ 4ee#p\)	16C##\LL
.	16A#\
.	16C##\
.	16A#\JJ
8r	16D#\LL
.	16A#\
8ff#\ 8dd#\	16D#\
.	16A#\JJ
! (8ff#P (8dd#P/	!
4ee#p\ 4cc##p\)	16AA#\LL
.	16G#\
.	16AA#\
.	16G#\JJ
=18	=18
8r	16BB/LL
.	16F#/
8dd#\	16BB/
.	16F#/JJ
16dd#t\LL	16AA#/LL
16cc##\J	16F#/
8dd#\J	16AA#/
.	16F#/JJ
8r	16BB/LL
.	16F#/
8dd#\	16BB/
.	16F#/JJ
16cc#\LL	16FF##/LL
16b\	16E/
16cc#\	16FF##/
16aa#\JJ	16E/JJ
=19	=19
*^	*
8b/	8r	16GG#/LL
.	.	16D#/
8r	8d#\	16GG#/
.	.	16D#/JJ
8cc#/	16d#t\LL	16FF##/LL
.	16c##\J	16D#/
8r	8d#\J	16FF##/
.	.	16D#/JJ
8b/	8r	16GG#/LL
.	.	16D#/
8r	32e\LLL	16GG#/
.	32d#\J	.
.	16c##\JJ	16D#/JJ
8a#/	8d#\L	16FF#/LL
.	.	16D#/
8r	8dd#\J	16FF#/
.	.	16D#/JJ
=20	=20	=20
8r	[2g#\	16EE#/LL
.	.	16D#/
16ee#/LL	.	16C##/
16dd#/JJ	.	16BB#/JJ
8ee#/L	.	16C##\LL
.	.	16G#\
8gg#/J	.	16E#\
.	.	16G#\JJ
8cc##/L	8.g#\L]	16AA#\LL
.	.	16A#\
8ee#/J	.	16BB#\
.	16f#\Jk	16A#\JJ
[4a#/	16e#\LL	16C##\LL
.	16d#\	16A#\
.	16e#\	16AA#\
.	16c##\JJ	16G#\JJ
=21	=21	=21
8a#/L]	8d#\L	16D#\LL
.	.	16F#\
16a#/L	16f#\L	16D#\
16g#/JJ	16e#\JJ	16F#\JJ
8a#/L	8f#\L	16C#\LL
.	.	16A#\
8ff#/J	8a#\J	16C#\
.	.	16A#\JJ
8r	8r	16BB#\LL
.	.	16G#\
8dd#/	8f#\	16BB#\
.	.	16G#\JJ
8r	8r	16GG#/LL
.	.	16G#/
8b#/	16e#\LL	16GG#/
.	16d#\JJ	16F#/JJ
=22	=22	=22
8r	8r	16C#\LL
.	.	16E#\
16g#/LL	16e#\LL	16C#\
16f#/JJ	16d#\JJ	16E#\JJ
8g#/L	8e#\L	16BB#\LL
.	.	16G#\
8ee#/J	8g#\J	16BB#\
.	.	16G#\JJ
8r	8r	16AA#/LL
.	.	16F#/
8cc#/	8e#\	16AA#/
.	.	16F#/JJ
8r	8r	16FF#/LL
.	.	16F#/
8a#/	16d#\LL	16FF#/
.	16c##\JJ	16E#/JJ
=23	=23	=23
8r	8r	16BB#/LL
.	.	16D#/
8g##/L	16f#\LL	16BB#/
.	16e#\JJ	16D#/JJ
8a#/	16f#\LL	16AA#/LL
.	16d#\J	16F#/
8dd#/J	8b#\J	16AA#/
.	.	16F#/JJ
8r	8r	16GG##/LL
.	.	16E#/
8dd#/L	16b#\LL	16GG##/
.	16a#\JJ	16E#/JJ
8cc##/	16bn\LL	16EE#/LL
.	16g#\J	16E#/
8bb/J	[8gg#\J	16EE#/
.	.	16D#/JJ
=24	=24	=24
4aa#/	16gg#\LL]	16C##/LL
.	32ff#\L	16AA#/
.	32ee#\JJ	.
.	8dd#\J	16D#/
.	.	16F#/JJ
16r	[4cc##\	8A#/L
16aa#/LL	.	.
16ee#/	.	8AA#/J
16gg#/JJ	.	.
8gg#/L	8cc##\L]	8.DD#/L
8ff##/J	8dd#\J	.
.	.	32FF##/LL
.	.	32AA#/JJJ
4r	4r	4D#\
=25:!!:	=25:!!:	=25:!!:
*v	*v	*
*>B	*
16dd#\LL	8r
16ee#\	.
16ff##\	16D#\LL
16gg#\JJ	16E#\JJ
16aa#\LL	8F##\L
16een\	.
16dd#\	8A#\J
16cc#\JJ	.
16b#\LL	8d#\L
16cc#\	.
16dd#\	8c#\
16an\JJ	.
16g#/LL	8B#\
16f#/	.
16e/	8G#\J
16d#/JJ	.
=26	=26
16e/LL	8c#\L
16cc#/	.
16e/	8C#\
16cc#/JJ	.
16e#/LL	8BB\
16ddn/	.
16e#/	8B\J
16dd/JJ	.
16cc#/LL	8An/L
16an/	.
16g#/	8AAn/
16f#/JJ	.
16e#/LL	8GG#/
16ddn/	.
16cc#/	8G#/J
16b/JJ	.
=27	=27
16a#\LL	8F#/L
16b\	.
16cc#\	8FF#/
16dd#\JJ	.
16ee\LL	8C#/
16b\	.
16an\	8E/J
16g#\JJ	.
16f##/LL	8AA#/L
16g#/	.
16a#/	8C#/
16e/JJ	.
16d#/LL	8FF##/
16c#/	.
16B/	8D#/J
16A#/JJ	.
=28	=28
16B/LL	8G#/L
16g#/	.
16B/	8GG#/
16g#/JJ	.
16B#/LL	8FF#/
16an/	.
16B#/	8F#/J
16a/JJ	.
16g#/LL	8E/L
16e/	.
16d#/	8EE/
16c#/JJ	.
16B#/LL	8DD#/
16an/	.
16g#/	8D#/J
16f#/JJ	.
=29	=29
16e#/LL	8C#/L
16f#/	.
16g#/	8CC#/J
16a#/JJ	.
16b\LL	16r
16ddn\	16c#\LL
16cc#\	16d#\
16b\JJ	16e#\JJ
16a#\LL	8f#\L
16b\	.
16cc#\	8F#\J
16g#\JJ	.
16f#/LL	16r
16en/	16F#\LL
16d#/	16G#\
16c#/JJ	16A#\JJ
=30	=30
16d#/LL	8B\L
16e/	.
! Possibly E#4 in some sources?	!
16f#/	8BB\J
16g#/JJ	.
16an/LL	16r
16cc#/	16BB/LL
16b/	16C#/
16a/JJ	16D#/JJ
16g#/LL	8E/L
16an/	.
16b/	8EE/J
16f#/JJ	.
16e/LL	16r
16dn/	16EE/LL
16c#/	16FF#/
16B/JJ	16GG#/JJ
=31	=31
8c#/L	16AAn/LL
.	16E/
8an/ 8c#/J	16AA/
.	16E/JJ
! (8aP (8c#P/	!
4bp/ 4dnp/)	16GG#/LL
.	16E/
.	16GG#/
.	16E/JJ
8r	16AA/LL
.	16E/
8a/ 8c#/	16AA/
.	16E/JJ
4g#/ 4B/	16EE#/LL
.	16Dn/
.	16EE#/
.	16D/JJ
=32	=32
8r	16FF#/LL
.	16C#/
16f#/ 16An/LL	16FF#/
16g#/ 16B/JJ	16C#/JJ
8an/ 8c#/L	16EEn/LL
.	16C#/
8cc#/ 8g#/J	16EE/
.	16C#/JJ
8r	16DD#/LL
.	16FF##/
8ee/ 8f##/L	16AA#/
.	16C#/JJ
8dd#/ 8g#/	16BB/LL
.	16AA#/
8cc#/ 8a#/J	16GG#/
.	16FF##/JJ
=33	=33
8r	16GG#/LL
.	16D#/
16b/ 16g#/LL	16GG#/
16a#/ 16f##/JJ	16D#/JJ
8b/ 8g#/L	16FF#/LL
.	16D#/
8dd#/ 8a#/J	16FF#/
.	16D#/JJ
8r	16EE#/LL
.	16GG##/
8ff#/ 8g##/L	16BB#/
.	16D#/JJ
8ee#/ 8a#/	16C#/LL
.	16BB#/
8dd#/ 8b#/J	16AA#/
.	16GG##/JJ
=34	=34
*^	*
16e#\LL	16cc##/	8AA#/L
16bn\	16ryy	.
16a#\	8ryy	8BB#/
16g#\JJ	.	.
16ee#\LL	4ryy	8C##/
16g#\	.	.
16ee#\	.	8AA#/J
16g#\JJ	.	.
16f##\LL	2ryy	8D#\L
16een\	.	.
16dd#\	.	8E#\
16cc#\JJ	.	.
16aa#\LL	.	8F##\
16cc#\	.	.
16aa#\	.	8D#\J
16cc#\JJ	.	.
=35	=35	=35
*v	*v	*
16b#/LL	8G#\L
16an/	.
16g#/	8A#\
16f#/JJ	.
16dd#/LL	8B#\
16f#/	.
16dd#/	8G#\J
16f#/JJ	.
16e#/LL	8c#\L
16ddn/	.
16cc#/	8d#\
16bn/JJ	.
16gg#\LL	8e#\
16b\	.
16gg#\	8c#\J
16b\JJ	.
=36	=36
16a#\LL	4f#\
16cc#\	.
16dd#\	.
16ee#\JJ	.
8ff#\L	16r
.	16e#\LL
8a#\J	16d#\
.	16c#\JJ
8g##\L	16B#\LL
.	16A#\
8ff#\	16B#\
.	16d#\JJ
8ee#\	16c##\LL
.	16B#\
8g#\J	16c##\
.	16e#\JJ
=37	=37
16f##/LL	(8e#\L
16a#/	.
16b#/	8d#\J)
16cc##/JJ	.
8dd#/L	16r
.	16c#\LL
8f#/J	16Bn\
.	16A#\JJ
8e#/L	16G#\LL
.	16F##\
8ddn/	16G#\
.	16B\JJ
8cc#/	16A#\LL
.	16G#\
8en/J	16A#\
.	16c#\JJ
=38	=38
16d#/LL	(8c#\L
16f##/	.
16g#/	8B\J)
16a#/JJ	.
8b/L	16r
.	16A#\LL
8d#/J	16G#\
.	16F#\JJ
8c##/L	16E#\LL
.	16D#\
8b/	16E#\
.	16G#\JJ
8a#/	16F##\LL
.	16E#\
8c#/J	16F##\
.	16A#\JJ
=39	=39
8B#/L	16D#\LL
.	16C##\
8an/	16D#\
.	16F#\JJ
8g#/	16En\LL
.	16D#\
8Bn/J	16E\
.	16G#\JJ
8A#/L	16C##/LL
.	16BB#/
8g#/	16C##/
.	16E#/JJ
8f##/	16D#/LL
.	16C##/
8An/J	16D#/
.	16F#/JJ
=40	=40
8G#/L	16BB#/LL
.	16AA#/
8f#/	16BB#/
.	16D#/JJ
8e#/	16C#/LL
.	16BB#/
8en/ 8G#/J	16C#/
.	16E/JJ
8e/ 8G#/L	16AA#/LL
.	16BBn/
8d#/ 8F##/J	16C#/
.	16BB/JJ
4r	16C#/LL
.	16F##/
.	16A#/
.	16C#/JJ
=41	=41
16g#/LL	16BB/LL
16a#/	16AA#/
16b/	16GG#/
16cc#/JJ	16AA#/JJ
16dd#/LL	16BB/LL
16b/	16C#/
16a#/	16D#/
16g#/JJ	16E/JJ
16f##/LL	8E/L
16g#/	.
16a#/	8FF##/J
16e/JJ	.
16d#/	16r
16r	16c#\LL
8r	16B\
.	16A#\JJ
=42	=42
8r	16G#\LL
.	16d#\
8gg#\ 8b\	16G#\
.	16d#\JJ
! (8gg#P (8bP/	!
4aa#p\ 4cc#p\)	16F##\LL
.	16d#\
.	16F##\
.	16d#\JJ
8r	16G#\LL
.	16d#\
8gg#\ 8b\	16G#\
.	16d#\JJ
! (8gg#P (8bP/	!
4ff##p\ 4a#p\)	16D#\LL
.	16d#\
.	16D#\
.	16d#\JJ
=43	=43
16r	16G#\LL
16f##/LL	16A#\
16g#/	16B\
16a#/JJ	16c#\JJ
32b/LLL	16d#\LL
32a#/J	.
16g#/J	16B\
8ee/ 8cc#\J	16A#\
.	16G#\JJ
8ee/ 8cc#\L	16F##\LL
.	16G#\
8dd#/ 8f##\J	16A#\
.	16E\JJ
4r	16D#/LL
.	16C#/
.	16BB/
.	16AA#/JJ
=44	=44
8r	16GG#\LL
.	16G#\
8b/ 8g#/L	16GG#\
.	16G#\JJ
(8cc#/ 8an/	16F#\LL
.	16d#\
8b#/ 8g#/J)	16F#\
.	16d#\JJ
8r	16E\LL
.	16c#\
8cc#/ 8g#/L	16E\
.	16c#\JJ
8ff#/ 8an/	16D#\LL
.	16B#\
8dd#/ 8f#/J	16D#\
.	16B#\JJ
=45	=45
*^	*
*^	*	*
8r	2ryy	2ryy	16C#\LL
.	.	.	16c#\
8ee\ 8g#\L	.	.	16C#\
.	.	.	16c#\JJ
*	*	*	*clefG6
(8ff#\ 8ddn\	.	.	16Bn/LL
.	.	.	16g#/
8ee#\ 8cc#\J)	.	.	16B/
.	.	.	16g#/JJ
8r	8ryy	8ryy	16A#/LL
.	.	.	16f##/
!	! Printed with pass one	!	!
!	! irest  4      2 e      1	!	!
!	! G#4    4      2 e     d1 [	!	!
!	! D5     4      2 e n   d1 =      (	!	!
!	! C#5    4      2 e     d1 ]      )	!	!
!	! irest  4      2 e      1	!	!
8aa#/L	16een/LL	8cc#\L	16A#/
.	16dd#/JJ	.	16f##/JJ
8aa#/ 8ee/	4ryy	8cc#\	16G#/LL
.	.	.	16g#/
8aa#/ 8ee/J	.	8cc#\J	16G#/
.	.	.	16g#/JJ
=46	=46	=46	=46
*v	*v	*	*
4aa#/ 4ee/	4cc#\	16f##/LL
.	.	16g#/
.	.	16a#/
.	.	16e/JJ
*	*	*clefG6
16r	4ryy	16d#\LL
16ee\LL	.	16c#\
16dd#\	.	16B\
16cc#\JJ	.	16A#\JJ
16b\LL	2ryy	8G#\L
16cc#\	.	.
16dd#\	.	8B\
16g#\JJ	.	.
16b/LL	.	8c#\
16a#/	.	.
16g#/	.	8d#\J
16f##/JJ	.	.
=47	=47	=47
16g#/LL	4ryy	8e\L
16b/	.	.
16g#/	.	8E\J
16b/JJ	.	.
16f#/LL	8r	8r
16dd#/	.	.
16f#/	8An/	8D#\ 8BB#\
16dd#/JJ	.	.
16e#/LL	8r	8r
16cc#/	.	.
16e#/	8G#/L	16C#\LL
16cc#/JJ	.	16D#\JJ
16c#/LL	8G#/	8E#\L
16b/	.	.
16c#/	8G#/J	8E#\J
16b/JJ	.	.
=48	=48	=48
16f#/LL	4F#/	8En\L
16a#/	.	.
16f#/	.	8FF#\J
16a#/JJ	.	.
16en/LL	8r	8r
16cc#/	.	.
16e/	8Gn/	8C#\ 8AA#\
16cc#/JJ	.	.
16d#/LL	8r	8r
16b/	.	.
16d#/	8F#/L	16BB\LL
16b/JJ	.	16C#\JJ
16B/LL	8F#/	8D#\L
16a#/	.	.
16B/	8F#/J	8D#\J
16a#/JJ	.	.
=49	=49	=49
16e/LL	4E/	8D#\L
16g#/	.	.
16e/	.	8EE\J
16g#/JJ	.	.
16d#/LL	8r	8r
16b/	.	.
16d#/	8F#/	8BB\ 8GG#\
16b/JJ	.	.
16c##/LL	8r	8r
16a#/	.	.
16c##/	8E#/L	16AA#\LL
16a#/JJ	.	16BB#x\JJ
16A#/LL	8E#/	8C##x\L
16g#/	.	.
16A#/	8En/J	[8C#\J
16g#/JJ	.	.
=50	=50	=50
*^	*	*
16f##/LL	8D#/	16r	8C#\L
16d#/	.	[8.d#\	.
16g#/	[8g#\	.	16BB\L
16a#/JJ	.	.	16C#\JJ
8b/ 8g#/L	2.ryy	16d#\LK]	8D#/L
.	.	8d#\	.
[8a#/ 8f##/J	.	.	8DD#/J
.	.	[16c#\Jk	.
8a#/ 8f##/L]	.	8c#\L]	8.GG#/L
8g#/ 8d#/J	.	8B\J	.
.	.	.	32BB/LL
.	.	.	32D#/JJJ
4r	.	4r	4G#\
==:|!	==:|!	==:|!	==:|!
*-	*-	*-	*-
!!!RWG: Appoggiaturas of spine '' need manual editing in measures: 2, 2, 2, 2, 4, 4, 4, 4, 17, 17, 17, 17, 31, 31, 42, 42, 42, 42
!!!RWG: Key is interpreted using the Humdrum key tool.
!!!AFT: stage2
!!!END: 1994/02/13/
!!format changes:
!!content changes:
!!public access: complete
!!!KEY: 3139031209
!!!EMD: Converted from MuseData to Humdrum Dec 19, 2000, by Andreas Kornstaedt using muse2kern.
